modules/themify-icons/icons/blackboard.svg

<?xml version="1.0" encoding="utf-8"?>
<!-- Generated by IcoMoon.io -->
<!DOCTYPE svg PUBLIC "-//W3C//DTD SVG 1.1//EN" "http://www.w3.org/Graphics/SVG/1.1/DTD/svg11.dtd">
<svg version="1.1" xmlns="http://www.w3.org/2000/svg" xmlns:xlink="http://www.w3.org/1999/xlink" width="17" height="17" viewBox="0 0 17 17">
<g>
</g>
	<path d="M9 2v-2h-1v2h-7v10h15v-10h-7zM15 11h-13v-8h13v8zM3.5 13h10v1h-2.584l1.504 2.326-0.84 0.543-1.855-2.869h-0.725v3h-1v-3h-0.712l-1.869 2.87-0.838-0.545 1.514-2.325h-2.595v-1z" fill="#000000" />
</svg>

<svg xmlns="http://www.w3.org/2000/svg" width="17" height="17" viewBox="0 0 17 17"><path d="M9 2V0H8v2H1v10h15V2H9zm6 9H2V3h13v8zM3.5 13h10v1h-2.584l1.504 2.326-.84.543L9.725 14H9v3H8v-3h-.712l-1.869 2.87-.838-.545L6.095 14H3.5v-1z"/></svg>
